!!!!SEGMENT: Ric2014-O_beata_infantia.krn
!!!id: Ric2014
!!!AGN: Motet
!!!SCT: Elzinga (1999)
!!!voices: 6
!!!COM: Jean Richafort
!!!OTL: O Beata infantia
**kern	**kern	**kern	**kern	**kern	**kern
*part6	*part5	*part4	*part3	*part2	*part1
*staff6	*staff5	*staff4	*staff3	*staff2	*staff1
*I"Bassus II	*I"Bassus I	*I"Tenor	*I"Altus	*I"Superius II	*I"Superius I
*I'B. II	*I'B. I	*I'T	*I'A	*I'S. II	*I'S. I
*clefF4	*clefF4	*clefGv2	*clefG2	*clefG2	*clefG2
*k[b-]	*k[b-]	*k[b-]	*k[b-]	*k[b-]	*k[b-]
*F:	*F:	*F:	*F:	*F:	*F:
*M2/1	*M2/1	*M2/1	*M2/1	*M2/1	*M2/1
*met(C|)	*met(C|)	*met(C|)	*met(C|)	*met(C|)	*met(C|)
!!section: Prima pars: O Beata infantia
!!!OMD: Prima pars: O Beata infantia
=1	=1	=1	=1	=1	=1
0r	0r	0r	1r	0r	1.g
.	.	.	[1g	.	.
.	.	.	.	.	2a
=2	=2	=2	=2	=2	=2
0r	0r	0r	1g]	0r	2b-y
.	.	.	.	.	2cc
.	.	.	1f	.	[1dd
=3	=3	=3	=3	=3	=3
0r	0r	0r	0e	0g	2dd]
.	.	.	.	.	4cc
.	.	.	.	.	4b-y
.	.	.	.	.	1cc
=4	=4	=4	=4	=4	=4
0r	0r	0r	1.d	0a	1dd
.	.	.	.	.	[1dd
.	.	.	2c	.	.
=5	=5	=5	=5	=5	=5
0r	0r	0r	2B-y	0g	2dd]
.	.	.	2A	.	2cc
.	.	.	1G	.	1b-y
=6	=6	=6	=6	=6	=6
0r	0r	0r	0d	0f	1a
.	.	.	.	.	2r
.	.	.	.	.	2dd
=7	=7	=7	=7	=7	=7
0r	0r	0r	1G	1g	2dd
.	.	.	.	.	2dd
.	.	.	2r	[1b-y	1g
.	.	.	2g	.	.
=8	=8	=8	=8	=8	=8
0r	0r	0r	2g	2b-]	2r
.	.	.	2g	4a	2dd
.	.	.	.	4g	.
.	.	.	[1f	[1a	2dd
.	.	.	.	.	2dd
=9	=9	=9	=9	=9	=9
0r	0r	0r	2f]	1a]	1cc
.	.	.	2e	.	.
.	.	.	2d	1r	2b-y
.	.	.	2c	.	[2a
=10	=10	=10	=10	=10	=10
0r	0r	0r	1B-y	1b-y	2a]
.	.	.	.	.	2g
.	.	.	2A	1cc	1a
.	.	.	2f	.	.
=11	=11	=11	=11	=11	=11
0r	1.G	0r	4g	2.b-y	1.dd
.	.	.	4f	.	.
.	.	.	4e	.	.
.	.	.	4d	8aL	.
.	.	.	.	8gJ	.
.	.	.	1e	2b-y	.
.	2A	.	.	[2a	2cc
=12	=12	=12	=12	=12	=12
0r	2.B-y	0r	1d	4a]	2dd
.	.	.	.	4g	.
.	.	.	.	1g	4cc
.	4c	.	.	.	4b-y
.	1d	.	1r	.	1a
.	.	.	.	2f#i	.
=13	=13	=13	=13	=13	=13
1.G	1r	0r	0r	1g	1g
.	[1G	.	.	1d	1dd
2A	.	.	.	.	.
=14	=14	=14	=14	=14	=14
2.B-y	1G]	0r	0r	1r	1dd
4c	.	.	.	.	.
[1d	1F	.	.	1f	1dd
=15	=15	=15	=15	=15	=15
2d]	0E	0G	0r	0g	0ee
4c#i	.	.	.	.	.
4Bni	.	.	.	.	.
1c#i	.	.	.	.	.
=16	=16	=16	=16	=16	=16
1d	0D	0A	0r	2.f	0ff
.	.	.	.	4e	.
1D	.	.	.	4d	.
.	.	.	.	4c	.
.	.	.	.	2f	.
=17	=17	=17	=17	=17	=17
0E-X	0r	0G	0r	2e	1.b-y
.	.	.	.	1d	.
.	.	.	.	2c	4a
.	.	.	.	.	4g
=18	=18	=18	=18	=18	=18
0D	0r	0F	1f	2.d	2b-y
.	.	.	.	.	2a
.	.	.	.	4e	.
.	.	.	2f	4f	2f
.	.	.	.	4g	.
.	.	.	2f	[2a	[2ff
=19	=19	=19	=19	=19	=19
0r	0r	1G	1B-y	2a]	4ff]
.	.	.	.	.	4ee
.	.	.	.	2g	2.ee
.	.	[1B-y	2.d	2f	.
.	.	.	.	.	4dd
.	.	.	.	2d	[2dd
.	.	.	4e	.	.
=20	=20	=20	=20	=20	=20
0r	0r	2B-]	2f	1b-y	2dd]
.	.	2G	2g	.	4cc#i
.	.	.	.	.	4bni
.	.	[1A	1e	[1a	1cc#i
=21	=21	=21	=21	=21	=21
1F	0D	1A]	0d	2a]	0dd
.	.	.	.	2g	.
1F	.	1B-y	.	1f	.
=22	=22	=22	=22	=22	=22
1G	1C	1.c	0r	0e	0r
1A	1C	.	.	.	.
.	.	2B-y	.	.	.
=23	=23	=23	=23	=23	=23
2F	1D	2A	1r	0d	0dd
2G	.	1G	.	.	.
1A	1r	.	1d	.	.
.	.	2F#i	.	.	.
=24	=24	=24	=24	=24	=24
0B-y	1r	0G	1d	0r	1dd
.	1G	.	1g	.	1dd
=25	=25	=25	=25	=25	=25
0G	1G	0r	0g	1d	0b-y
.	1d	.	.	1d	.
=26	=26	=26	=26	=26	=26
0r	1d	0r	2.f	1a	0r
.	.	.	8eL	.	.
.	.	.	8dJ	.	.
.	1A	.	1c	1a	.
=27	=27	=27	=27	=27	=27
0r	1c	1r	0r	1e	1g
.	2.B-y	1G	.	[1g	1g
.	4A	.	.	.	.
=28	=28	=28	=28	=28	=28
0r	2G	1G	1d	2g]	1dd
.	4F	.	.	2g	.
.	4E	.	.	.	.
.	1D	1d	1d	[1f	1dd
=29	=29	=29	=29	=29	=29
0r	0r	1d	1a	2f]	1a
.	.	.	.	4e	.
.	.	.	.	4d	.
.	.	1A	1a	1e	[1cc
=30	=30	=30	=30	=30	=30
0r	0r	1.c	1e	0r	2cc]
.	.	.	.	.	4b-y
.	.	.	.	.	4a
.	.	.	[1g	.	2g
.	.	2B-y	.	.	[2b-y
=31	=31	=31	=31	=31	=31
1G	0r	2G	2g]	1r	4b-]
.	.	.	.	.	4a
.	.	2A	2f	.	1a
1G	.	1B-y	2.d	1d	.
.	.	.	.	.	2g
.	.	.	4e	.	.
=32	=32	=32	=32	=32	=32
1d	1D	0A	1f	1d	0a
1d	1D	.	2r	1a	.
.	.	.	[2f	.	.
=33	=33	=33	=33	=33	=33
1.c	1A	0r	2f]	1a	0r
.	.	.	4e	.	.
.	.	.	4d	.	.
.	1A	.	2c	1e	.
4B-y	.	.	2d	.	.
4A	.	.	.	.	.
=34	=34	=34	=34	=34	=34
4G	1E	0r	1e	1.g	0r
4F	.	.	.	.	.
4G	.	.	.	.	.
4A	.	.	.	.	.
2.B-y	[1G	.	[1d	.	.
.	.	.	.	2f	.
4A	.	.	.	.	.
=35	=35	=35	=35	=35	=35
2B-y	2G]	0r	1d]	1d	0r
1A	2F	.	.	.	.
.	1E	.	1c#i	1e	.
2G	.	.	.	.	.
=36	=36	=36	=36	=36	=36
1A	0D	1r	0d	2r	2r
.	.	.	.	2f	2f
1r	.	2r	.	[1f	2a
.	.	2F	.	.	2b-y
=37	=37	=37	=37	=37	=37
0r	0r	2A	0r	2f]	2cc
.	.	2B-y	.	2g	2b-y
.	.	1c	.	1a	1ee-X
=38	=38	=38	=38	=38	=38
1r	0r	1d	2r	2.b-y	1dd
.	.	.	2f	.	.
.	.	.	.	8aL	.
.	.	.	.	8gJ	.
2r	.	2B-y	[1f	2b-y	1r
2F	.	[2c	.	[2a	.
=39	=39	=39	=39	=39	=39
2A	0r	2c]	2f]	4a]	0r
.	.	.	.	4g	.
2B-y	.	2B-y	2g	1g	.
1c	.	1A	1a	.	.
.	.	.	.	2f#i	.
=40	=40	=40	=40	=40	=40
1d	1r	1G	2.b-y	1g	1r
.	.	.	8aL	.	.
.	.	.	8gJ	.	.
2B-y	2r	2r	2b-y	1d	[1dd
[2d	2D	2F	[2a	.	.
=41	=41	=41	=41	=41	=41
2d]	2F	2A	2a]	0r	2dd]
4c	2G	2B-y	1g	.	2dd
4B-y	.	.	.	.	.
1A	2A	1c	.	.	1cc
.	2F	.	2f	.	.
=42	=42	=42	=42	=42	=42
1G	2.B-y	1d	2g	0r	2b-y
.	.	.	2d	.	2g
.	4A	.	.	.	.
1r	2G	2B-y	2e	.	2b-y
.	2F	[2c	2f	.	[2a
=43	=43	=43	=43	=43	=43
0r	1E	4c]	2g	0r	4a]
.	.	4B-y	.	.	4g
.	.	4A	2c	.	1g
.	.	4G	.	.	.
.	1D	1A	1d	.	.
.	.	.	.	.	2f#i
=44	=44	=44	=44	=44	=44
0r	0G	[0G	1B-y	0dd	0g
.	.	.	[1g	.	.
=45	=45	=45	=45	=45	=45
0c	0C	0G]	2g]	1r	0r
.	.	.	2f	.	.
.	.	.	2e	1g	.
.	.	.	2e	.	.
=46	=46	=46	=46	=46	=46
2B-y	0G	0r	1.d	0b-y	0r
2G	.	.	.	.	.
2.B-y	.	.	.	.	.
.	.	.	8dL	.	.
.	.	.	8c	.	.
4c	.	.	8d	.	.
.	.	.	8eJ	.	.
=47	=47	=47	=47	=47	=47
2d	2F	0r	2f	2a	1r
2G	2E	.	1g	2g	.
1d	1D	.	.	1a	[1dd
.	.	.	2f#i	.	.
=48	=48	=48	=48	=48	=48
0r	0r	0G	0g	1r	2dd]
.	.	.	.	.	2cc
.	.	.	.	1d	2b-y
.	.	.	.	.	2b-y
=49	=49	=49	=49	=49	=49
0r	0r	2F	0r	0f	1.a
.	.	2D	.	.	.
.	.	2.F	.	.	.
.	.	.	.	.	8aL
.	.	.	.	.	8g
.	.	4G	.	.	8a
.	.	.	.	.	8b-yJ
=50	=50	=50	=50	=50	=50
0r	0r	2A	0r	2e	2cc
.	.	2B-y	.	2d	2dd
.	.	1A	.	[1a	2ee
.	.	.	.	.	2ff
=51	=51	=51	=51	=51	=51
0r	0r	2r	0r	2a]	4ee
.	.	.	.	.	4dd
.	.	2F	.	4g	1dd
.	.	.	.	4f	.
.	.	2G	.	1e	.
.	.	2A	.	.	2cc#i
=52	=52	=52	=52	=52	=52
0r	0r	2B-y	0r	1d	0dd
.	.	2G	.	.	.
.	.	1d	.	2r	.
.	.	.	.	2d	.
=53	=53	=53	=53	=53	=53
0r	0r	2c	0r	2e	1r
.	.	4B-y	.	2f	.
.	.	4A	.	.	.
.	.	2B-y	.	2g	2r
.	.	2c	.	2e	2g
=54	=54	=54	=54	=54	=54
0r	0r	0F	0r	2f	2a
.	.	.	.	4e	2b-y
.	.	.	.	4d	.
.	.	.	.	2c	2cc
.	.	.	.	2f	2a
=55	=55	=55	=55	=55	=55
0r	0r	0r	2r	4g	2.dd
.	.	.	.	4f	.
.	.	.	1g	2.b-y	.
.	.	.	.	.	8ccL
.	.	.	.	.	8b-yJ
.	.	.	.	.	2dd
.	.	.	.	4a	.
.	.	.	2a	[2a	[2cc
=56	=56	=56	=56	=56	=56
0r	0r	0r	2f	4a]	2cc]
.	.	.	.	4g	.
.	.	.	2g	1g	2b-y
.	.	.	2d	.	1a
.	.	.	2f	2f#i	.
=57	=57	=57	=57	=57	=57
0r	2r	0r	2e	1g	1g
.	1G	.	2d	.	.
.	.	.	4e	1r	1r
.	.	.	4d	.	.
.	2A	.	4c	.	.
.	.	.	4B-y	.	.
=58	=58	=58	=58	=58	=58
1.d	2F	0r	2A	0r	0r
.	2G	.	4d	.	.
.	.	.	4e	.	.
.	2D	.	4f	.	.
.	.	.	4g	.	.
2d	2F	.	[2a	.	.
=59	=59	=59	=59	=59	=59
2e	1E	0r	4a]	0r	0r
.	.	.	4g	.	.
2c#i	.	.	4g	.	.
.	.	.	8fL	.	.
.	.	.	8eJ	.	.
1d	2.D	.	2f	.	.
.	.	.	2b-y	.	.
.	4E	.	.	.	.
=60	=60	=60	=60	=60	=60
2c	2F	0r	4a	0r	0r
.	.	.	4g	.	.
2B-y	2G	.	1g	.	.
1A	1D	.	.	.	.
.	.	.	2f#i	.	.
=61	=61	=61	=61	=61	=61
0G	1r	0r	0g	0dd	0r
.	[1d	.	.	.	.
=62	=62	=62	=62	=62	=62
0r	2d]	[0G	1r	1.dd	1r
.	2c	.	.	.	.
.	2B-y	.	1G	.	1dd
.	2A	.	.	2cc	.
=63	=63	=63	=63	=63	=63
0r	2G	0G]	1.B-y	2b-y	1dd
.	2F	.	.	2a	.
.	1E	.	.	1g	1ee
.	.	.	4A	.	.
.	.	.	4G	.	.
=64	=64	=64	=64	=64	=64
1r	0D	0F	1.d	0a	1.ff
[1d	.	.	.	.	.
.	.	.	2c	.	2ee
=65	=65	=65	=65	=65	=65
2d]	0r	0G	2B-y	0d	1.dd
2c	.	.	2A	.	.
2B-y	.	.	1G	.	.
2A	.	.	.	.	2cc
=66	=66	=66	=66	=66	=66
2G	0r	0G	1B-y	0r	2b-y
2F	.	.	.	.	2a
1E	.	.	1c	.	1g
=67	=67	=67	=67	=67	=67
0D	0r	2.A	4d	2r	2f
.	.	.	4c	.	.
.	.	.	4d	1d	2.ff
.	.	4G	4e	.	.
.	.	2A	1f	.	.
.	.	.	.	.	4ee
.	.	2B-y	.	2d	[2dd
=68	=68	=68	=68	=68	=68
0r	0r	1G	1B-y	2d	4dd]
.	.	.	.	.	4cc
.	.	.	.	2e	1b-y
.	.	1F	1c	1f	.
.	.	.	.	.	2a
=69	=69	=69	=69	=69	=69
1d	0r	0r	0B-y	2r	0b-y
.	.	.	.	2d	.
2.d	.	.	.	4f	.
.	.	.	.	4e	.
.	.	.	.	4f	.
8cL	.	.	.	4g	.
8B-yJ	.	.	.	.	.
=70	=70	=70	=70	=70	=70
2A	0D	0r	0r	1a	1r
1d	.	.	.	.	.
.	.	.	.	[1b-y	[1dd
[2D	.	.	.	.	.
=71	=71	=71	=71	=71	=71
4D]	0F	0r	0r	2b-]	1dd]
4E	.	.	.	.	.
4F	.	.	.	2a	.
4G	.	.	.	.	.
4A	.	.	.	[1a	1cc
4B-y	.	.	.	.	.
4c	.	.	.	.	.
4A	.	.	.	.	.
=72	=72	=72	=72	=72	=72
4B-y	0G	0r	0d	2a]	0b-y
4G	.	.	.	.	.
1c	.	.	.	4g	.
.	.	.	.	4f	.
.	.	.	.	1g	.
2B-y	.	.	.	.	.
=73	=73	=73	=73	=73	=73
2.c	0F	0A	0f	0a	0a
4B-y	.	.	.	.	.
4A	.	.	.	.	.
4G	.	.	.	.	.
[2A	.	.	.	.	.
=74	=74	=74	=74	=74	=74
2A]	0E	0c	0g	0r	0r
4G	.	.	.	.	.
4F	.	.	.	.	.
1G	.	.	.	.	.
=75	=75	=75	=75	=75	=75
2A	0D	0d	0f	0r	0a
4D	.	.	.	.	.
4E	.	.	.	.	.
4F	.	.	.	.	.
4E	.	.	.	.	.
4F	.	.	.	.	.
4G	.	.	.	.	.
=76	=76	=76	=76	=76	=76
4A	0r	0c	0e	0r	0cc
4F	.	.	.	.	.
1B-y	.	.	.	.	.
2A	.	.	.	.	.
=77	=77	=77	=77	=77	=77
0B-y	2r	0B-y	0d	1r	0dd
.	2.G	.	.	.	.
.	.	.	.	2.d	.
.	4A	.	.	.	.
.	4B-y	.	.	.	.
.	4G	.	.	4e	.
=78	=78	=78	=78	=78	=78
0r	2A	0A	0r	4f	0cc
.	.	.	.	4d	.
.	2B-y	.	.	1g	.
.	1c	.	.	.	.
.	.	.	.	2f#i	.
=79	=79	=79	=79	=79	=79
2r	1d	2.G	0d	4g	0b-y
.	.	.	.	4a	.
2.G	.	.	.	4b-y	.
.	.	4A	.	4cc	.
.	1r	4B-y	.	2dd	.
4A	.	4c	.	.	.
4B-y	.	4d	.	2g	.
4G	.	4B-y	.	.	.
=80	=80	=80	=80	=80	=80
2A	1r	2c	1f	2r	0a
2B-y	.	2d	.	2dd	.
2c	2r	2A	2e	4cc	.
.	.	.	.	4b-y	.
2d	[2D	[2d	2e	4a	.
.	.	.	.	4g	.
=81	=81	=81	=81	=81	=81
1D	4D]	4d]	2r	2b-y	1f
.	4E	4c	.	.	.
.	4F	4c	2A	2a	.
.	4D	8B-yL	.	.	.
.	.	8AJ	.	.	.
1r	2E	2G	2.c	2r	2g
.	2F	2c	.	2f	[2a
.	.	.	4B-y	.	.
=82	=82	=82	=82	=82	=82
1r	2G	2B-y	2G	2e	4a]
.	.	.	.	.	4g
.	2E	4A	2c	2c	1g
.	.	4G	.	.	.
1F	1D	1A	1f	1d	.
.	.	.	.	.	2f#i
=83	=83	=83	=83	=83	=83
1.B-y	[0Gl	[0Gl	2e	0r	[0gl
.	.	.	2.d	.	.
.	.	.	4c	.	.
2G	.	.	4B-y	.	.
.	.	.	4A	.	.
=	=	=	=	=	=
00G	00G]	00G]	00G	00d	00g]
=||	=||	=||	=||	=||	=||
*M2/1	*M2/1	*M2/1	*M2/1	*M2/1	*M2/1
*met(C|)	*met(C|)	*met(C|)	*met(C|)	*met(C|)	*met(C|)
!!section: Secunda pars: Felices panni
!!!OMD: Secunda pars: Felices panni
0r	0r	0r	0r	0f	0r
=84	=84	=84	=84	=84	=84
0r	0r	0r	0r	0g	0b-y
=85	=85	=85	=85	=85	=85
0r	0r	0r	0r	1e	0cc
.	.	.	.	[1f	.
=86	=86	=86	=86	=86	=86
0r	0r	1r	0f	2f]	1a
.	.	.	.	2e	.
.	.	[1B-y	.	2.d	[1b-y
.	.	.	.	4c	.
=87	=87	=87	=87	=87	=87
0r	0r	1B-]	0g	1d	2b-]
.	.	.	.	.	2a
.	.	[1c	.	[1e	2.g
.	.	.	.	.	4f
=88	=88	=88	=88	=88	=88
0r	0r	1c]	1e	1e]	1g
.	.	1A	[1f	1c	1a
=89	=89	=89	=89	=89	=89
0r	0r	1.B-y	2f]	2.d	0f
.	.	.	2e	.	.
.	.	.	.	4e	.
.	.	.	2d	4f	.
.	.	.	.	4g	.
.	.	2A	[2c	[2f	.
=90	=90	=90	=90	=90	=90
0r	0r	1G	2c]	2f]	1g
.	.	.	2B-y	2e	.
.	.	1F	1c	1f	1a
=91	=91	=91	=91	=91	=91
0r	0r	1G	1r	2d	1b-y
.	.	.	.	1e	.
.	.	1A	1c	.	2a
.	.	.	.	[2f	2cc
=92	=92	=92	=92	=92	=92
0r	0r	0B-y	2d	4f]	4b-y
.	.	.	.	4e	4a
.	.	.	1f	4d	1a
.	.	.	.	4c	.
.	.	.	.	1d	.
.	.	.	4e	.	2g
.	.	.	4d	.	.
=93	=93	=93	=93	=93	=93
0r	0r	0A	2.c	1e	0a
.	.	.	4d	.	.
.	.	.	2e	2c	.
.	.	.	2f	[2cc	.
=94	=94	=94	=94	=94	=94
0r	0r	0r	1d	2cc]	2r
.	.	.	.	2b-y	2f
.	.	.	1c	1cc	2g
.	.	.	.	.	2a
=95	=95	=95	=95	=95	=95
0r	0r	0r	2r	1g	2b-y
.	.	.	2c	.	2cc
.	.	.	2d	2r	2f
.	.	.	2e	2g	2cc
=96	=96	=96	=96	=96	=96
0r	0r	0r	2f	2a	1dd
.	.	.	2g	2b-y	.
.	.	.	2e	2cc	1ee
.	.	.	[2a	2cc	.
=97	=97	=97	=97	=97	=97
0r	0r	2r	4a]	4f	2ff
.	.	.	4g	4g	.
.	.	2F	4f	4a	1dd
.	.	.	4e	4f	.
.	.	2G	4d	2b-y	.
.	.	.	4c	.	.
.	.	2A	[2f	[2a	2cc
=98	=98	=98	=98	=98	=98
0r	0r	2B-y	2f]	2a]	2dd
.	.	2c	2e	2g	2.cc
.	.	2A	1f	1a	.
.	.	.	.	.	4b-y
.	.	[2d	.	.	4a
.	.	.	.	.	4g
=99	=99	=99	=99	=99	=99
0r	0r	4d]	1r	0r	4f
.	.	4c	.	.	4e
.	.	4B-y	.	.	1a
.	.	4A	.	.	.
.	.	1B-y	2r	.	.
.	.	.	2d	.	2g
=100	=100	=100	=100	=100	=100
0r	0r	1A	2e	0cc	0a
.	.	.	2.f	.	.
.	.	1r	.	.	.
.	.	.	4g	.	.
.	.	.	4a	.	.
.	.	.	4g	.	.
=101	=101	=101	=101	=101	=101
0r	0r	2r	2.b-y	1.dd	0r
.	.	2d	.	.	.
.	.	.	4a	.	.
.	.	2e	4g	.	.
.	.	.	4f	.	.
.	.	[2f	[2a	2cc	.
=102	=102	=102	=102	=102	=102
0r	0r	4f]	2a]	1b-y	1r
.	.	4e	.	.	.
.	.	2g	1g	.	.
.	.	1d	.	1a	2r
.	.	.	2f#i	.	2dd
=103	=103	=103	=103	=103	=103
0r	0r	1G	1g	1.b-y	1dd
.	.	1r	[1g	.	1b-y
.	.	.	.	2a	.
=104	=104	=104	=104	=104	=104
0r	0r	0c	1g]	2g	2.cc
.	.	.	.	2f	.
.	.	.	.	.	4b-y
.	.	.	[1a	1e	2.a
.	.	.	.	.	4g
=105	=105	=105	=105	=105	=105
0r	0r	1.d	1a]	1r	1f
.	.	.	1f	1d	1r
.	.	2c	.	.	.
=106	=106	=106	=106	=106	=106
0r	0r	1B-y	1.g	1d	1r
.	.	1A	.	1c	1a
.	.	.	2f	.	.
=107	=107	=107	=107	=107	=107
0r	0r	2r	1e	1.g	1.b-y
.	.	2.G	.	.	.
.	.	.	[1d	.	.
.	.	4A	.	.	.
.	.	4B-y	.	2g	2b-y
.	.	4c	.	.	.
=108	=108	=108	=108	=108	=108
0r	0r	4d	1d]	2.f	1a
.	.	4e	.	.	.
.	.	2.f	.	.	.
.	.	.	.	4g	.
.	.	.	2r	2a	1f
.	.	4e	.	.	.
.	.	4d	[2f	[2b-y	.
.	.	4c	.	.	.
=109	=109	=109	=109	=109	=109
0r	0r	2B-y	2f]	4b-]	2r
.	.	.	.	4a	.
.	.	2c	2e	4g	2.g
.	.	.	.	4f	.
.	.	1G	2.g	2e	.
.	.	.	.	.	4a
.	.	.	.	2d	4b-y
.	.	.	4g	.	4cc
=110	=110	=110	=110	=110	=110
0r	0r	2.B-y	2f	2r	4dd
.	.	.	.	.	4ee
.	.	.	4d	2b-y	2.ff
.	.	4c	4e	.	.
.	.	2d	4f	2a	.
.	.	.	4d	.	4ee
.	.	2B-y	[2g	[2b-y	4dd
.	.	.	.	.	4cc
=111	=111	=111	=111	=111	=111
0r	0r	1e-X	2g]	2b-]	2b-y
.	.	.	4f#i	4a	2cc
.	.	.	4e	4g	.
.	.	1d	1f#i	2a	[1dd
.	.	.	.	[2b-y	.
=112	=112	=112	=112	=112	=112
1r	0r	1G	2g	4b-]	1dd]
.	.	.	.	4a	.
.	.	.	2G	1g	.
1D	.	1r	[1d	.	2r
.	.	.	.	2f#i	2dd
=113	=113	=113	=113	=113	=113
1G	2r	1r	2d]	0g	2b-y
.	2d	.	2B-y	.	2.dd
1G	2B-y	[1G	4G	.	.
.	.	.	4A	.	4cc
.	[2d	.	4B-y	.	2b-y
.	.	.	4c	.	.
=114	=114	=114	=114	=114	=114
0D	2d]	1G]	0d	1r	0a
.	4c	.	.	.	.
.	4B-y	.	.	.	.
.	2A	1F	.	2r	.
.	2D	.	.	2dd	.
=115	=115	=115	=115	=115	=115
2r	1G	0G	1r	2b-y	0r
2d	.	.	.	2.dd	.
2B-y	1G	.	[1g	.	.
.	.	.	.	4cc	.
[2d	.	.	.	2b-y	.
=116	=116	=116	=116	=116	=116
2d]	0D	0A	1g]	0a	1r
4c	.	.	.	.	.
4B-y	.	.	.	.	.
2A	.	.	1f	.	2r
2D	.	.	.	.	2dd
=117	=117	=117	=117	=117	=117
1G	2r	2r	0g	0r	2b-y
.	2d	2.G	.	.	2.dd
1G	2B-y	.	.	.	.
.	.	4A	.	.	4cc
.	[2d	4B-y	.	.	2b-y
.	.	4G	.	.	.
=118	=118	=118	=118	=118	=118
0D	2d]	0d	0a	1r	4a
.	.	.	.	.	4g
.	4c	.	.	.	4f
.	4B-y	.	.	.	4e
.	2A	.	.	2r	1f
.	2D	.	.	2dd	.
=119	=119	=119	=119	=119	=119
2r	1G	0r	1g	2b-y	0r
2d	.	.	.	2.dd	.
2B-y	1G	.	1d	.	.
.	.	.	.	4cc	.
[2d	.	.	.	2b-y	.
=120	=120	=120	=120	=120	=120
2d]	0F	1r	[0f	2a	0ff
4c	.	.	.	1b-y	.
4B-y	.	.	.	.	.
1c	.	2r	.	.	.
.	.	2c	.	2a	.
=121	=121	=121	=121	=121	=121
0B-y	2r	2d	0f]	0b-y	1ff
.	2d	4B-y	.	.	.
.	.	4c	.	.	.
.	2B-y	4d	.	.	2.dd
.	.	4e	.	.	.
.	[2d	[2f	.	.	.
.	.	.	.	.	8ccL
.	.	.	.	.	8b-yJ
=122	=122	=122	=122	=122	=122
0r	4d]	2f]	2r	0r	2a
.	4c	.	.	.	.
.	2B-y	4e	2d	.	2b-y
.	.	4d	.	.	.
.	2A	4c	2e	.	1cc
.	.	4B-y	.	.	.
.	2F	2c	[2f	.	.
=123	=123	=123	=123	=123	=123
2r	2.B-y	2d	4f]	1r	2.b-y
.	.	.	4e	.	.
2d	.	1G	4d	.	.
.	4A	.	4c	.	8aL
.	.	.	.	.	8gJ
2B-y	2G	.	4d	2r	2b-y
.	.	.	4e	.	.
[2d	2F	2A	2f	2dd	[2a
=124	=124	=124	=124	=124	=124
4d]	1G	2B-y	2.B-y	2b-y	2a]
4c	.	.	.	.	.
2B-y	.	2G	.	2.dd	1g
.	.	.	4c	.	.
2A	1D	1A	[1d	.	.
.	.	.	.	4cc	.
2F	.	.	.	2a	2f#i
=125	=125	=125	=125	=125	=125
2.B-y	2r	2r	1d]	2.b-y	1g
.	2d	1G	.	.	.
4A	.	.	.	8aL	.
.	.	.	.	8gJ	.
2G	2B-y	.	2r	2b-y	2r
2F	[2d	2A	2d	[2a	2dd
=126	=126	=126	=126	=126	=126
1G	4d]	2B-y	2d	2a]	2b-y
.	4c	.	.	.	.
.	2B-y	2G	2d	1g	2.dd
1D	2A	1A	1d	.	.
.	.	.	.	.	4cc
.	2F	.	.	2f#i	2a
=127	=127	=127	=127	=127	=127
2r	2r	1G	2.d	0g	0b-y
2G	2B-y	.	.	.	.
.	.	.	4c	.	.
2G	2G	1r	4d	.	.
.	.	.	4B-y	.	.
2G	[2B-y	.	[2e-i	.	.
=128	=128	=128	=128	=128	=128
1G	4B-]	0r	2e-]	0r	0r
.	4A	.	.	.	.
.	4G	.	1d	.	.
.	4F	.	.	.	.
1G	1E	.	.	.	.
.	.	.	2c	.	.
=129	=129	=129	=129	=129	=129
1A	1D	0r	1d	1r	1r
2.G	1r	.	1r	1d	2r
.	.	.	.	.	2g
4A	.	.	.	.	.
=130	=130	=130	=130	=130	=130
2B-y	0r	0r	0r	2d	2g
1c	.	.	.	1e	2g
.	.	.	.	.	1g
4B-y	.	.	.	4d	.
4A	.	.	.	4c	.
=131	=131	=131	=131	=131	=131
2B-y	0r	0r	0r	2d	1g
2c	.	.	.	2e	.
1F	.	.	.	2f	1a
.	.	.	.	2c	.
=132	=132	=132	=132	=132	=132
0r	0r	2r	0r	2e	2.g
.	.	2G	.	2d	.
.	.	.	.	.	4a
.	.	2G	.	2.g	4b-y
.	.	.	.	.	4cc
.	.	2G	.	.	[2dd
.	.	.	.	4f	.
=133	=133	=133	=133	=133	=133
0r	0r	1G	0r	2e	4dd]
.	.	.	.	.	4cc
.	.	.	.	4d	1cc
.	.	.	.	4c	.
.	.	1G	.	1d	.
.	.	.	.	.	2bni
=134	=134	=134	=134	=134	=134
0r	1F	1A	2.c	1c	[0cc
.	.	.	4d	.	.
.	2E	2G	2e	1r	.
.	[2F	[2A	[2c	.	.
=135	=135	=135	=135	=135	=135
0r	2F]	2A]	2c]	0r	0cc]
.	4E	4G	1f	.	.
.	4D	4F	.	.	.
.	1C	1G	.	.	.
.	.	.	2e	.	.
=136	=136	=136	=136	=136	=136
1.c	2.F	1F	1f	2.cc	2.a
.	4G	.	.	4b-y	4b-y
.	2A	1r	[1c	2a	2cc
2B-y	2B-y	.	.	2g	2dd
=137	=137	=137	=137	=137	=137
2A	1.c	2.A	1c]	2r	2ee
2F	.	.	.	1cc	2ff
.	.	4B-y	.	.	.
2.A	.	2c	1r	.	2ee
.	2B-y	2d	.	2f	[2dd
4B-y	.	.	.	.	.
=138	=138	=138	=138	=138	=138
2c	2A	2e	1r	1a	4dd]
.	.	.	.	.	4cc
2A	2F	2f	.	.	1cc
1B-y	1G	1d	1d	1g	.
.	.	.	.	.	2bni
=139	=139	=139	=139	=139	=139
0G	0C	0c	1g	1r	0cc
.	.	.	2g	[1g	.
.	.	.	2f	.	.
=140	=140	=140	=140	=140	=140
0C	1.c	0r	2e	2g]	1r
.	.	.	2d	2f	.
.	.	.	1c	2e	[1cc
.	2B-y	.	.	2d	.
=141	=141	=141	=141	=141	=141
0r	2A	0r	0r	4c	2cc]
.	.	.	.	4d	.
.	2G	.	.	4e	2b-y
.	.	.	.	4c	.
.	2F	.	.	2f	2a
.	2c	.	.	[2e	2g
=142	=142	=142	=142	=142	=142
0r	2.d	0r	2r	2e]	2f
.	.	.	1f	2d	2.b-y
.	4c	.	.	.	.
.	2A	.	.	1e	.
.	.	.	.	.	4a
.	2c	.	2e	.	[2a
=143	=143	=143	=143	=143	=143
1r	1B-y	0r	2e	0r	2a]
.	.	.	2d	.	2g
[1c	[1A	.	[1e	.	[1a
=144	=144	=144	=144	=144	=144
2c]	1A]	1.c	1e]	1r	1a]
2B-y	.	.	.	.	.
2A	1r	.	1r	[1cc	1r
2G	.	2B-y	.	.	.
=145	=145	=145	=145	=145	=145
0F	0r	2A	1.f	2cc]	1cc
.	.	2G	.	2b-y	.
.	.	1A	.	1a	1dd
.	.	.	2e	.	.
=146	=146	=146	=146	=146	=146
0G	0r	1.B-y	2d	1.g	1dd
.	.	.	2c	.	.
.	.	.	1d	.	1b-y
.	.	2A	.	2f	.
=147	=147	=147	=147	=147	=147
0C	0r	2.G	1.g	2e	0cc
.	.	.	.	2d	.
.	.	4F	.	.	.
.	.	1G	.	2c	.
.	.	.	2f	[2cc	.
=148	=148	=148	=148	=148	=148
0r	1.c	0A	2e	2cc]	1r
.	.	.	2d	2b-y	.
.	.	.	1c	2.a	[1cc
.	2B-y	.	.	.	.
.	.	.	.	4g	.
=149	=149	=149	=149	=149	=149
1.c	2A	2.A	1f	1a	2cc]
.	2G	.	.	.	2b-y
.	.	4B-y	.	.	.
.	1F	2c	1f	1r	[1a
2A	.	[2d	.	.	.
=150	=150	=150	=150	=150	=150
1B-y	0G	4d]	1d	2.g	1a]
.	.	4c	.	.	.
.	.	4B-y	.	.	.
.	.	4A	.	4g	.
1G	.	1B-y	1d	2g	1g
.	.	.	.	2g	.
=151	=151	=151	=151	=151	=151
1.d	[0D	0A	[0d	[0f	[0a
4c	.	.	.	.	.
4B-y	.	.	.	.	.
=152	=152	=152	=152	=152	=152
0A	0D]	0r	0d]	0f]	0a]
=	=	=	=	=	=
*M3/1	*M3/1	*M3/1	*M3/1	*M3/1	*M3/1
*met(3)	*met(3)	*met(3)	*met(3)	*met(3)	*met(3)
1A	1F	1r	1c	0.r	0.r
1B-y	1D	1F	1d	.	.
1c	1C	1G	1e	.	.
=153	=153	=153	=153	=153	=153
1F	0.r	1A	0.r	1c	1r
1D	.	1r	.	1d	1f
1C	.	1r	.	1e	1g
=154	=154	=154	=154	=154	=154
0.r	1F	0.r	1c	1r	1a
.	1D	.	1d	1f	1r
.	1C	.	1e	1g	1r
=155	=155	=155	=155	=155	=155
1F	0.r	1c	0f	1a	1r
1D	.	1d	.	1r	1f
1C	.	1e	2e	1r	1g
.	.	.	2d	.	.
=156	=156	=156	=156	=156	=156
1.F	0.r	1.f	1c	0.r	1a
.	.	.	1.a	.	0cc
2G	.	2e	.	.	.
1A	.	1c	.	.	.
.	.	.	2g	.	.
=157	=157	=157	=157	=157	=157
1B-y	0.r	1d	0f	0.r	0b-y
0G	.	1B-y	.	.	.
.	.	1r	1e	.	1g
=158	=158	=158	=158	=158	=158
0F	1F	1c	0f	1r	1.a
.	1D	1d	.	1f	.
.	.	.	.	.	2b-y
1r	1C	1e	1r	1g	2cc
.	.	.	.	.	2b-y
=159	=159	=159	=159	=159	=159
0.r	1.F	1.f	0.r	1a	2a
.	.	.	.	.	2g
.	.	.	.	0cc	1.a
.	2G	2e	.	.	.
.	1A	1c	.	.	.
.	.	.	.	.	2g
=160	=160	=160	=160	=160	=160
0.r	1B-y	1d	0.r	0b-y	0f
.	0G	0B-y	.	.	.
.	.	.	.	1g	1e
=161	=161	=161	=161	=161	=161
0A	0F	1.c	1f	2a	1f
.	.	.	.	2g	.
.	.	.	1f	1.a	1cc
.	.	2B-y	.	.	.
1F	1F	1A	1c	.	1cc
.	.	.	.	2g	.
=162	=162	=162	=162	=162	=162
1D	1BB-y	1B-y	1r	0f	1dd
1E	0C	0G	1g	.	2cc
.	.	.	.	.	2b-y
1C	.	.	1g	1e	2a
.	.	.	.	.	2g
=	=	=	=	=	=
*M2/1	*M2/1	*M2/1	*M2/1	*M2/1	*M2/1
*met(C|)	*met(C|)	*met(C|)	*met(C|)	*met(C|)	*met(C|)
0c	2r	0F	2c	1f	0a
.	2F	.	1f	.	.
.	2F	.	.	2r	.
.	2F	.	4e	2a	.
.	.	.	4d	.	.
=163	=163	=163	=163	=163	=163
0r	4G	1r	2e	1g	0r
.	4F	.	.	.	.
.	4E	.	1d	.	.
.	4D	.	.	.	.
.	1E	2r	.	1g	.
.	.	2G	2c#i	.	.
=164	=164	=164	=164	=164	=164
2r	0D	2A	0d	0f	1r
2F	.	2B-y	.	.	.
2F	.	2A	.	.	1a
2F	.	[2d	.	.	.
=165	=165	=165	=165	=165	=165
4G	0r	2d]	1r	0r	1g
4F	.	.	.	.	.
4E	.	4c#i	.	.	.
4D	.	4Bni	.	.	.
1E	.	1c#i	2r	.	1g
.	.	.	2G	.	.
=166	=166	=166	=166	=166	=166
0D	2r	0d	2A	1r	1f
.	2F	.	2B-y	.	.
.	2F	.	2A	1a	2r
.	2F	.	2d	.	2a
=167	=167	=167	=167	=167	=167
1r	4G	1r	1d	1g	1b-y
.	4F	.	.	.	.
.	4E	.	.	.	.
.	4D	.	.	.	.
1C	1E	1G	1c	1g	1cc
=168	=168	=168	=168	=168	=168
1F	[0D	1A	1A	2f	[0dd
.	.	.	.	2d	.
2.D	.	1B-y	[1d	2.f	.
4E	.	.	.	4g	.
=169	=169	=169	=169	=169	=169
2F	0D]	0A	1d]	2a	0dd]
2G	.	.	.	1g	.
2A	.	.	1d	.	.
[2d	.	.	.	2f#i	.
=170	=170	=170	=170	=170	=170
4d]	1G	[0Gl	0d	[0gl	1r
4c	.	.	.	.	.
1c	.	.	.	.	.
.	2G	.	.	.	1dd
2Bni	2G	.	.	.	.
=171	=171	=171	=171	=171	=171
1c	0C	0G_	1.e	0g_	1cc
2r	.	.	.	.	1cc
[2G	.	.	4d	.	.
.	.	.	4c	.	.
=172	=172	=172	=172	=172	=172
4G]	[0Gl	0G_	[0dl	0g_	1.b-y
4A	.	.	.	.	.
4B-y	.	.	.	.	.
4c	.	.	.	.	.
2d	.	.	.	.	.
2d	.	.	.	.	4a
.	.	.	.	.	4g
=173	=173	=173	=173	=173	=173
00B-yl	00G]	00G]	00d]	00g]	00ddl
==	==	==	==	==	==
*-	*-	*-	*-	*-	*-
!!!system-decoration: [*]
!!!RDF**kern: i = editorial accidental
!!!RDF**kern: l = terminal long
!!!ENC: Benjamin Ory
!!!END: 2022/2/6
!!!EED: Benjamin Ory
!!!EEV: 2022/02/06
!!!YEC: Copyright 2022 Benjamin Ory, All Rights Reserved
!!!ONB: Translated from MusicXML on 2022/02/06
